{ "compressionlevel":-1,
 "height":20,
 "infinite":false,
 "layers":[
        {
         "data":[0, 0, 0, 0, 0, 0, 0, 0, 0, 0, 0, 0, 0, 0, 0, 0, 0, 34, 34, 34, 34, 34, 34, 34, 34, 34, 0, 0, 0, 0,
            0, 0, 0, 0, 0, 0, 0, 0, 0, 0, 0, 0, 0, 0, 0, 0, 0, 34, 34, 34, 34, 34, 34, 34, 34, 34, 0, 0, 0, 0,
            0, 0, 0, 0, 0, 0, 0, 0, 0, 0, 0, 0, 0, 0, 0, 0, 0, 0, 0, 0, 0, 0, 0, 0, 34, 34, 0, 0, 0, 0,
            0, 0, 0, 0, 0, 0, 0, 0, 0, 0, 0, 0, 0, 0, 0, 0, 0, 0, 0, 0, 0, 0, 0, 0, 34, 34, 0, 0, 0, 0,
            0, 0, 0, 0, 0, 0, 0, 0, 34, 34, 34, 34, 34, 34, 34, 34, 0, 0, 0, 0, 0, 0, 0, 0, 34, 34, 0, 0, 0, 0,
            0, 0, 0, 0, 0, 0, 0, 0, 34, 34, 34, 34, 34, 34, 34, 34, 0, 0, 0, 0, 0, 0, 0, 0, 34, 34, 0, 0, 0, 0,
            0, 0, 0, 0, 0, 0, 0, 0, 34, 34, 0, 0, 0, 0, 34, 34, 0, 0, 0, 0, 0, 0, 0, 0, 34, 34, 0, 0, 0, 0,
            0, 0, 0, 0, 0, 0, 0, 0, 34, 34, 0, 0, 0, 0, 34, 34, 0, 34, 34, 34, 34, 34, 34, 34, 34, 34, 0, 0, 0, 0,
            0, 0, 0, 0, 0, 0, 0, 0, 34, 34, 0, 0, 0, 0, 34, 34, 0, 34, 34, 34, 34, 34, 34, 34, 34, 34, 0, 0, 0, 0,
            34, 34, 34, 34, 34, 34, 34, 34, 34, 34, 0, 0, 0, 0, 34, 34, 0, 34, 34, 0, 0, 0, 0, 0, 0, 0, 0, 0, 0, 0,
            34, 34, 34, 34, 34, 34, 34, 34, 34, 34, 0, 0, 0, 0, 34, 34, 0, 34, 34, 0, 0, 0, 0, 0, 0, 0, 0, 0, 0, 0,
            0, 0, 0, 0, 0, 0, 0, 0, 0, 0, 0, 0, 0, 0, 34, 34, 0, 34, 34, 34, 34, 34, 34, 34, 34, 0, 0, 0, 0, 0,
            0, 0, 0, 0, 0, 0, 0, 0, 0, 0, 0, 0, 0, 0, 34, 34, 0, 34, 34, 34, 34, 34, 34, 34, 34, 0, 0, 0, 0, 0,
            0, 0, 0, 0, 0, 0, 0, 0, 0, 0, 0, 0, 0, 0, 34, 34, 0, 0, 0, 0, 0, 0, 0, 34, 34, 0, 0, 0, 0, 0,
            0, 0, 0, 0, 0, 0, 0, 34, 34, 34, 34, 34, 34, 34, 34, 34, 0, 0, 0, 0, 0, 0, 0, 34, 34, 0, 0, 0, 0, 0,
            0, 0, 0, 0, 0, 0, 0, 34, 34, 34, 34, 34, 34, 34, 34, 34, 0, 0, 0, 0, 0, 0, 0, 34, 34, 0, 0, 0, 0, 0,
            0, 0, 0, 0, 0, 0, 0, 34, 34, 0, 0, 0, 0, 0, 0, 0, 0, 0, 0, 0, 0, 0, 0, 34, 34, 0, 0, 0, 0, 0,
            0, 0, 0, 0, 0, 0, 0, 34, 34, 34, 34, 34, 34, 34, 34, 34, 34, 34, 34, 34, 34, 34, 34, 34, 34, 0, 0, 0, 0, 0,
            0, 0, 0, 0, 0, 0, 0, 34, 34, 34, 34, 34, 34, 34, 34, 34, 34, 34, 34, 34, 34, 34, 34, 34, 34, 0, 0, 0, 0, 0,
            0, 0, 0, 0, 0, 0, 0, 0, 0, 0, 0, 0, 0, 0, 0, 0, 0, 0, 0, 0, 0, 0, 0, 0, 0, 0, 0, 0, 0, 0],
         "height":20,
         "id":1,
         "name":"Tile Layer 1",
         "opacity":1,
         "type":"tilelayer",
         "visible":true,
         "width":30,
         "x":0,
         "y":0
        }, 
        {
         "id":3,
         "image":"BloonsCutMap1.png",
         "imageheight":641,
         "imagewidth":995,
         "locked":true,
         "name":"Image Layer 1",
         "offsetx":-17.3333333333334,
         "offsety":1.33333333333337,
         "opacity":1,
         "type":"imagelayer",
         "visible":true,
         "x":0,
         "y":0
        }],
 "nextlayerid":5,
 "nextobjectid":3,
 "orientation":"orthogonal",
 "renderorder":"right-down",
 "tiledversion":"1.11.2",
 "tileheight":32,
 "tilesets":[
        {
         "columns":8,
         "firstgid":1,
         "image":"..\/..\/Soft_Project\/Mementos-Tower-Defense\/Phaser_Pathing\/src\/assets\/tiles.png",
         "imageheight":640,
         "imagewidth":256,
         "margin":0,
         "name":"Testing_Tileset",
         "spacing":0,
         "tilecount":160,
         "tileheight":32,
         "tilewidth":32
        }],
 "tilewidth":32,
 "type":"map",
 "version":"1.10",
 "width":30
}